images/telegram.svg

<svg width="24" height="24" viewBox="0 0 24 24" fill="none" xmlns="http://www.w3.org/2000/svg">
<path fill-rule="evenodd" clip-rule="evenodd" d="M24 12C24 18.627 18.627 24 12 24C5.373 24 0 18.627 0 12C0 5.373 5.373 0 12 0C18.627 0 24 5.373 24 12ZM12.43 8.859C11.263 9.344 8.93 10.349 5.432 11.873C4.864 12.099 4.566 12.32 4.539 12.536C4.493 12.902 4.951 13.046 5.573 13.241C5.658 13.268 5.746 13.295 5.836 13.325C6.449 13.524 7.273 13.757 7.701 13.766C8.09 13.774 8.524 13.614 9.003 13.286C12.271 11.079 13.958 9.964 14.064 9.94C14.139 9.923 14.243 9.901 14.313 9.964C14.383 10.026 14.376 10.144 14.369 10.176C14.323 10.369 12.529 12.038 11.599 12.902C11.309 13.171 11.104 13.362 11.062 13.406C10.968 13.503 10.872 13.596 10.78 13.685C10.21 14.233 9.784 14.645 10.804 15.317C11.294 15.64 11.686 15.907 12.077 16.173C12.504 16.464 12.93 16.754 13.482 17.116C13.622 17.208 13.756 17.303 13.887 17.396C14.384 17.751 14.831 18.069 15.383 18.019C15.703 17.989 16.035 17.688 16.203 16.789C16.6 14.663 17.382 10.059 17.563 8.161C17.574 8.00341 17.5673 7.84509 17.543 7.689C17.5284 7.56293 17.4671 7.44693 17.371 7.364C17.228 7.247 17.006 7.222 16.906 7.224C16.455 7.232 15.763 7.473 12.43 8.859V8.859Z" fill="#FCFCFC"/>
</svg>

<svg width="24" height="24" viewBox="0 0 24 24" fill="none" xmlns="http://www.w3.org/2000/svg"><path fill-rule="evenodd" clip-rule="evenodd" d="M24 12a12 12 0 1 1-24 0 12 12 0 0 1 24 0ZM12.43 8.86c-1.17.48-3.5 1.49-7 3.01-.57.23-.86.45-.9.67-.04.36.42.5 1.04.7l.27.08c.6.2 1.43.44 1.86.45.39 0 .82-.16 1.3-.48 3.27-2.21 4.96-3.33 5.06-3.35.08-.02.18-.04.25.02.07.07.07.18.06.22-.05.19-1.84 1.86-2.77 2.72a28.24 28.24 0 0 0-.82.79c-.57.54-1 .96.02 1.63.5.32.89.59 1.28.85a88.77 88.77 0 0 0 1.8 1.23c.5.35.95.67 1.5.62.32-.03.65-.33.82-1.23.4-2.13 1.18-6.73 1.36-8.63.01-.16 0-.31-.02-.47a.5.5 0 0 0-.17-.33.78.78 0 0 0-.46-.14c-.46.01-1.15.25-4.48 1.64Z" fill="#FCFCFC"/></svg>
